static/logos/twilio-wordmark-color.svg

<svg width="100" height="30" viewBox="0 0 100 30" fill="none" xmlns="http://www.w3.org/2000/svg">
<mask id="mask0_1_634" style="mask-type:alpha" maskUnits="userSpaceOnUse" x="0" y="0" width="100" height="30">
<path d="M14.9383 0C23.2041 0 29.8765 6.67913 29.8765 14.9533C29.8765 23.2274 23.2041 29.9065 14.9383 29.9065C6.67243 29.9065 0 23.2274 0 14.9533C0 6.67913 6.67243 0 14.9383 0ZM14.9383 3.98754C8.86337 3.98754 3.98354 8.87227 3.98354 14.9533C3.98354 21.0343 8.86337 25.919 14.9383 25.919C21.0132 25.919 25.893 21.0343 25.893 14.9533C25.893 8.87227 21.0132 3.98754 14.9383 3.98754ZM40.3334 5.88162C40.5325 5.78193 40.7317 5.98131 40.7317 6.081V10.3676H48.6988C48.7983 10.3676 48.9976 10.567 48.9976 10.6666L49.595 13.1589L50.1926 15.6511L50.2921 15.9502L50.3918 15.6511L51.8856 10.6666C51.8856 10.4673 52.0848 10.3676 52.1844 10.3676H56.1679C56.2675 10.3676 56.4666 10.567 56.4666 10.6666L58.0601 15.9502L58.1597 15.6511L59.4543 10.6666C59.4543 10.4673 59.6535 10.3676 59.7531 10.3676H69.9111C70.0107 10.3676 70.1103 10.567 70.1103 10.6666V23.9252C70.1103 24.1246 69.9111 24.2243 69.8115 24.2243H64.7325C64.5334 24.2243 64.4337 24.025 64.4337 23.9252L64.4331 11.3645L60.6493 23.9252C60.6493 24.0997 60.4969 24.1979 60.3921 24.2196L60.3507 24.2243H56.1679C56.0683 24.2243 55.8692 24.025 55.8692 23.9252L55.0724 21.2336L54.1762 18.3427L52.3836 23.9252C52.3836 24.1246 52.1844 24.2243 52.0848 24.2243H47.9021C47.8024 24.2243 47.6033 24.025 47.6033 23.9252L43.819 11.3645V14.5545C43.819 14.7539 43.6197 14.8536 43.5202 14.8536H40.6321V18.243C40.6321 19.2399 41.13 19.6386 42.0264 19.6386C42.4247 19.6386 42.9226 19.539 43.4206 19.3395C43.5202 19.2399 43.7193 19.3395 43.7193 19.539V23.5264C42.8231 24.025 41.5284 24.324 40.1342 24.324C36.8478 24.324 35.0551 22.8287 35.0551 19.539V14.8536H33.7605C33.5613 14.8536 33.4618 14.6542 33.4618 14.5545V10.7664C33.4618 10.567 33.6609 10.4673 33.7605 10.4673H35.0551V7.7757C35.0551 7.57633 35.1548 7.47664 35.3539 7.47664L40.3334 5.88162ZM91.721 10.0685C96.1028 10.0685 99.2897 13.3582 99.2897 17.1464C99.2897 20.9346 96.1028 24.2243 91.6214 24.2243C87.2395 24.2243 84.0527 20.9346 84.0527 17.1464C84.0527 13.3582 87.2395 10.0685 91.721 10.0685ZM76.5835 5.88162C76.7827 5.88162 76.8823 5.98131 76.8823 6.081V23.8255C76.8823 24.025 76.6831 24.1246 76.5835 24.1246H71.5045C71.3053 24.1246 71.2058 23.9252 71.2058 23.8255V6.18068C71.2058 5.98131 71.405 5.88162 71.5045 5.88162H76.5835ZM83.256 10.3676C83.4551 10.3676 83.5548 10.567 83.5548 10.6666V23.7259C83.5548 23.9252 83.3555 24.025 83.256 24.025H78.1769C77.9778 24.025 77.8782 23.8255 77.8782 23.7259V10.6666C77.8782 10.4673 78.0774 10.3676 78.1769 10.3676H83.256ZM11.2535 15.5514C12.9465 15.5514 14.3407 16.947 14.3407 18.6418C14.3407 20.3364 12.9465 21.7321 11.2535 21.7321C9.56047 21.7321 8.16625 20.3364 8.16625 18.6418C8.16625 16.947 9.56047 15.5514 11.2535 15.5514ZM18.6231 15.5514C20.3161 15.5514 21.7103 16.947 21.7103 18.6418C21.7103 20.3364 20.3161 21.7321 18.6231 21.7321C16.93 21.7321 15.5358 20.3364 15.5358 18.6418C15.5358 16.947 16.93 15.5514 18.6231 15.5514ZM91.721 14.8536C90.4264 14.8536 89.53 15.9502 89.53 17.2461C89.53 18.5421 90.5259 19.6386 91.721 19.6386C93.0156 19.6386 93.9121 18.5421 93.9121 17.2461C93.9121 15.8505 92.9161 14.7539 91.721 14.8536ZM18.6231 8.17446C20.3161 8.17446 21.7103 9.57009 21.7103 11.2648C21.7103 12.9595 20.3161 14.3551 18.6231 14.3551C16.93 14.3551 15.5358 12.9595 15.5358 11.2648C15.5358 9.57009 16.93 8.17446 18.6231 8.17446ZM11.2535 8.17446C12.9465 8.17446 14.3407 9.57009 14.3407 11.2648C14.3407 12.9595 12.9465 14.3551 11.2535 14.3551C9.56047 14.3551 8.16625 12.9595 8.16625 11.2648C8.16625 9.57009 9.56047 8.17446 11.2535 8.17446ZM70.0107 5.88162C70.1103 5.88162 70.2099 5.98131 70.3094 6.081V9.27103C70.3094 9.47037 70.1103 9.57009 70.0107 9.57009H64.7325C64.5334 9.57009 64.4337 9.37075 64.4337 9.27103V6.18068C64.4337 5.98131 64.6329 5.88162 64.7325 5.88162H70.0107ZM83.3555 5.88162C83.5548 5.88162 83.6543 5.98131 83.6543 6.081V9.27103C83.6543 9.47037 83.4551 9.57009 83.3555 9.57009H78.0774C77.8782 9.57009 77.7786 9.37075 77.7786 9.27103V6.18068C77.7786 5.98131 77.9778 5.88162 78.0774 5.88162H83.3555Z" fill="white"/>
</mask>
<g mask="url(#mask0_1_634)">
<path d="M14.9383 0C23.2041 0 29.8765 6.67913 29.8765 14.9533C29.8765 23.2274 23.2041 29.9065 14.9383 29.9065C6.67243 29.9065 0 23.2274 0 14.9533C0 6.67913 6.67243 0 14.9383 0ZM14.9383 3.98754C8.86337 3.98754 3.98354 8.87227 3.98354 14.9533C3.98354 21.0343 8.86337 25.919 14.9383 25.919C21.0132 25.919 25.893 21.0343 25.893 14.9533C25.893 8.87227 21.0132 3.98754 14.9383 3.98754ZM40.3334 5.88162C40.5325 5.78193 40.7317 5.98131 40.7317 6.081V10.3676H48.6988C48.7983 10.3676 48.9976 10.567 48.9976 10.6666L49.595 13.1589L50.1926 15.6511L50.2921 15.9502L50.3918 15.6511L51.8856 10.6666C51.8856 10.4673 52.0848 10.3676 52.1844 10.3676H56.1679C56.2675 10.3676 56.4666 10.567 56.4666 10.6666L58.0601 15.9502L58.1597 15.6511L59.4543 10.6666C59.4543 10.4673 59.6535 10.3676 59.7531 10.3676H69.9111C70.0107 10.3676 70.1103 10.567 70.1103 10.6666V23.9252C70.1103 24.1246 69.9111 24.2243 69.8115 24.2243H64.7325C64.5334 24.2243 64.4337 24.025 64.4337 23.9252L64.4331 11.3645L60.6493 23.9252C60.6493 24.0997 60.4969 24.1979 60.3921 24.2196L60.3507 24.2243H56.1679C56.0683 24.2243 55.8692 24.025 55.8692 23.9252L55.0724 21.2336L54.1762 18.3427L52.3836 23.9252C52.3836 24.1246 52.1844 24.2243 52.0848 24.2243H47.9021C47.8024 24.2243 47.6033 24.025 47.6033 23.9252L43.819 11.3645V14.5545C43.819 14.7539 43.6197 14.8536 43.5202 14.8536H40.6321V18.243C40.6321 19.2399 41.13 19.6386 42.0264 19.6386C42.4247 19.6386 42.9226 19.539 43.4206 19.3395C43.5202 19.2399 43.7193 19.3395 43.7193 19.539V23.5264C42.8231 24.025 41.5284 24.324 40.1342 24.324C36.8478 24.324 35.0551 22.8287 35.0551 19.539V14.8536H33.7605C33.5613 14.8536 33.4618 14.6542 33.4618 14.5545V10.7664C33.4618 10.567 33.6609 10.4673 33.7605 10.4673H35.0551V7.7757C35.0551 7.57633 35.1548 7.47664 35.3539 7.47664L40.3334 5.88162ZM91.721 10.0685C96.1028 10.0685 99.2897 13.3582 99.2897 17.1464C99.2897 20.9346 96.1028 24.2243 91.6214 24.2243C87.2395 24.2243 84.0527 20.9346 84.0527 17.1464C84.0527 13.3582 87.2395 10.0685 91.721 10.0685ZM76.5835 5.88162C76.7827 5.88162 76.8823 5.98131 76.8823 6.081V23.8255C76.8823 24.025 76.6831 24.1246 76.5835 24.1246H71.5045C71.3053 24.1246 71.2058 23.9252 71.2058 23.8255V6.18068C71.2058 5.98131 71.405 5.88162 71.5045 5.88162H76.5835ZM83.256 10.3676C83.4551 10.3676 83.5548 10.567 83.5548 10.6666V23.7259C83.5548 23.9252 83.3555 24.025 83.256 24.025H78.1769C77.9778 24.025 77.8782 23.8255 77.8782 23.7259V10.6666C77.8782 10.4673 78.0774 10.3676 78.1769 10.3676H83.256ZM11.2535 15.5514C12.9465 15.5514 14.3407 16.947 14.3407 18.6418C14.3407 20.3364 12.9465 21.7321 11.2535 21.7321C9.56047 21.7321 8.16625 20.3364 8.16625 18.6418C8.16625 16.947 9.56047 15.5514 11.2535 15.5514ZM18.6231 15.5514C20.3161 15.5514 21.7103 16.947 21.7103 18.6418C21.7103 20.3364 20.3161 21.7321 18.6231 21.7321C16.93 21.7321 15.5358 20.3364 15.5358 18.6418C15.5358 16.947 16.93 15.5514 18.6231 15.5514ZM91.721 14.8536C90.4264 14.8536 89.53 15.9502 89.53 17.2461C89.53 18.5421 90.5259 19.6386 91.721 19.6386C93.0156 19.6386 93.9121 18.5421 93.9121 17.2461C93.9121 15.8505 92.9161 14.7539 91.721 14.8536ZM18.6231 8.17446C20.3161 8.17446 21.7103 9.57009 21.7103 11.2648C21.7103 12.9595 20.3161 14.3551 18.6231 14.3551C16.93 14.3551 15.5358 12.9595 15.5358 11.2648C15.5358 9.57009 16.93 8.17446 18.6231 8.17446ZM11.2535 8.17446C12.9465 8.17446 14.3407 9.57009 14.3407 11.2648C14.3407 12.9595 12.9465 14.3551 11.2535 14.3551C9.56047 14.3551 8.16625 12.9595 8.16625 11.2648C8.16625 9.57009 9.56047 8.17446 11.2535 8.17446ZM70.0107 5.88162C70.1103 5.88162 70.2099 5.98131 70.3094 6.081V9.27103C70.3094 9.47037 70.1103 9.57009 70.0107 9.57009H64.7325C64.5334 9.57009 64.4337 9.37075 64.4337 9.27103V6.18068C64.4337 5.98131 64.6329 5.88162 64.7325 5.88162H70.0107ZM83.3555 5.88162C83.5548 5.88162 83.6543 5.98131 83.6543 6.081V9.27103C83.6543 9.47037 83.4551 9.57009 83.3555 9.57009H78.0774C77.8782 9.57009 77.7786 9.37075 77.7786 9.27103V6.18068C77.7786 5.98131 77.9778 5.88162 78.0774 5.88162H83.3555Z" fill="#F22F46"/>
</g>
</svg>

<svg xmlns="http://www.w3.org/2000/svg" width="213.333" height="64" fill="none" viewBox="0 0 100 30"><mask id="a" width="100" height="30" x="0" y="0" maskUnits="userSpaceOnUse" style="mask-type:alpha"><path fill="#fff" d="M14.938 0c8.266 0 14.938 6.68 14.938 14.953 0 8.274-6.672 14.954-14.938 14.954C6.672 29.907 0 23.227 0 14.953 0 6.68 6.672 0 14.938 0Zm0 3.988A10.929 10.929 0 0 0 3.984 14.953c0 6.081 4.88 10.966 10.954 10.966a10.929 10.929 0 0 0 10.955-10.966c0-6.08-4.88-10.965-10.955-10.965Zm25.395 1.894c.2-.1.399.1.399.199v4.287h7.967c.1 0 .299.199.299.299l.597 2.492.598 2.492.1.3.099-.3 1.494-4.984c0-.2.199-.3.298-.3h3.984c.1 0 .299.2.299.3l1.593 5.283.1-.299 1.294-4.984c0-.2.2-.3.3-.3H69.91c.1 0 .2.2.2.3v13.258c0 .2-.2.3-.3.3h-5.079c-.199 0-.298-.2-.298-.3v-12.56l-3.785 12.56c0 .175-.152.273-.257.295l-.041.004h-4.183c-.1 0-.299-.199-.299-.299l-.797-2.691-.896-2.891-1.792 5.582c0 .2-.2.3-.3.3h-4.182c-.1 0-.299-.2-.299-.3l-3.784-12.56v3.19c0 .199-.2.299-.299.299h-2.888v3.389c0 .997.498 1.396 1.394 1.396.399 0 .897-.1 1.395-.3.1-.1.298 0 .298.2v3.987c-.896.499-2.19.798-3.585.798-3.286 0-5.079-1.495-5.079-4.785v-4.685h-1.294c-.2 0-.3-.2-.3-.3v-3.788c0-.199.2-.299.3-.299h1.294V7.776c0-.2.1-.3.299-.3l4.98-1.594Zm51.388 4.187c4.382 0 7.569 3.29 7.569 7.077 0 3.789-3.187 7.078-7.669 7.078-4.381 0-7.568-3.29-7.568-7.078 0-3.788 3.187-7.078 7.668-7.078ZM76.583 5.881c.2 0 .3.1.3.199v17.745c0 .199-.2.299-.3.299h-5.079c-.199 0-.298-.2-.298-.3V6.182c0-.2.199-.3.298-.3h5.08Zm6.673 4.486c.2 0 .299.199.299.299v13.059c0 .2-.2.299-.299.299h-5.08c-.198 0-.298-.2-.298-.3V10.668c0-.2.2-.3.299-.3h5.079ZM11.254 15.55a3.104 3.104 0 0 1 3.087 3.09 3.104 3.104 0 0 1-3.087 3.091 3.104 3.104 0 0 1-3.088-3.09 3.104 3.104 0 0 1 3.088-3.09Zm7.37 0a3.104 3.104 0 0 1 3.086 3.09 3.104 3.104 0 0 1-3.087 3.091 3.104 3.104 0 0 1-3.087-3.09 3.104 3.104 0 0 1 3.087-3.09Zm73.097-.697c-1.295 0-2.191 1.096-2.191 2.392 0 1.296.996 2.393 2.191 2.393 1.295 0 2.191-1.097 2.191-2.393 0-1.395-.996-2.492-2.191-2.392Zm-73.098-6.68a3.104 3.104 0 0 1 3.087 3.09 3.104 3.104 0 0 1-3.087 3.091 3.104 3.104 0 0 1-3.087-3.09 3.104 3.104 0 0 1 3.087-3.09Zm-7.37 0a3.104 3.104 0 0 1 3.088 3.09 3.104 3.104 0 0 1-3.087 3.091 3.104 3.104 0 0 1-3.088-3.09 3.104 3.104 0 0 1 3.088-3.09Zm58.758-2.292c.1 0 .199.1.298.199v3.19c0 .2-.199.3-.298.3h-5.278c-.2 0-.3-.2-.3-.3v-3.09c0-.2.2-.3.3-.3h5.278Zm13.345 0c.199 0 .298.1.298.199v3.19c0 .2-.199.3-.298.3h-5.279c-.199 0-.298-.2-.298-.3v-3.09c0-.2.199-.3.298-.3h5.279Z"/></mask><g mask="url(#a)"><path fill="#F22F46" d="M14.938 0c8.266 0 14.938 6.68 14.938 14.953 0 8.274-6.672 14.954-14.938 14.954C6.672 29.907 0 23.227 0 14.953 0 6.68 6.672 0 14.938 0Zm0 3.988A10.929 10.929 0 0 0 3.984 14.953c0 6.081 4.88 10.966 10.954 10.966a10.929 10.929 0 0 0 10.955-10.966c0-6.08-4.88-10.965-10.955-10.965Zm25.395 1.894c.2-.1.399.1.399.199v4.287h7.967c.1 0 .299.199.299.299l.597 2.492.598 2.492.1.3.099-.3 1.494-4.984c0-.2.199-.3.298-.3h3.984c.1 0 .299.2.299.3l1.593 5.283.1-.299 1.294-4.984c0-.2.2-.3.3-.3H69.91c.1 0 .2.2.2.3v13.258c0 .2-.2.3-.3.3h-5.079c-.199 0-.298-.2-.298-.3v-12.56l-3.785 12.56c0 .175-.152.273-.257.295l-.041.004h-4.183c-.1 0-.299-.199-.299-.299l-.797-2.691-.896-2.891-1.792 5.582c0 .2-.2.3-.3.3h-4.182c-.1 0-.299-.2-.299-.3l-3.784-12.56v3.19c0 .199-.2.299-.299.299h-2.888v3.389c0 .997.498 1.396 1.394 1.396.399 0 .897-.1 1.395-.3.1-.1.298 0 .298.2v3.987c-.896.499-2.19.798-3.585.798-3.286 0-5.079-1.495-5.079-4.785v-4.685h-1.294c-.2 0-.3-.2-.3-.3v-3.788c0-.199.2-.299.3-.299h1.294V7.776c0-.2.1-.3.299-.3l4.98-1.594Zm51.388 4.187c4.382 0 7.569 3.29 7.569 7.077 0 3.789-3.187 7.078-7.669 7.078-4.381 0-7.568-3.29-7.568-7.078 0-3.788 3.187-7.078 7.668-7.078ZM76.583 5.881c.2 0 .3.1.3.199v17.745c0 .199-.2.299-.3.299h-5.079c-.199 0-.298-.2-.298-.3V6.182c0-.2.199-.3.298-.3h5.08Zm6.673 4.486c.2 0 .299.199.299.299v13.059c0 .2-.2.299-.299.299h-5.08c-.198 0-.298-.2-.298-.3V10.668c0-.2.2-.3.299-.3h5.079ZM11.254 15.55a3.104 3.104 0 0 1 3.087 3.09 3.104 3.104 0 0 1-3.087 3.091 3.104 3.104 0 0 1-3.088-3.09 3.104 3.104 0 0 1 3.088-3.09Zm7.37 0a3.104 3.104 0 0 1 3.086 3.09 3.104 3.104 0 0 1-3.087 3.091 3.104 3.104 0 0 1-3.087-3.09 3.104 3.104 0 0 1 3.087-3.09Zm73.097-.697c-1.295 0-2.191 1.096-2.191 2.392 0 1.296.996 2.393 2.191 2.393 1.295 0 2.191-1.097 2.191-2.393 0-1.395-.996-2.492-2.191-2.392Zm-73.098-6.68a3.104 3.104 0 0 1 3.087 3.09 3.104 3.104 0 0 1-3.087 3.091 3.104 3.104 0 0 1-3.087-3.09 3.104 3.104 0 0 1 3.087-3.09Zm-7.37 0a3.104 3.104 0 0 1 3.088 3.09 3.104 3.104 0 0 1-3.087 3.091 3.104 3.104 0 0 1-3.088-3.09 3.104 3.104 0 0 1 3.088-3.09Zm58.758-2.292c.1 0 .199.1.298.199v3.19c0 .2-.199.3-.298.3h-5.278c-.2 0-.3-.2-.3-.3v-3.09c0-.2.2-.3.3-.3h5.278Zm13.345 0c.199 0 .298.1.298.199v3.19c0 .2-.199.3-.298.3h-5.279c-.199 0-.298-.2-.298-.3v-3.09c0-.2.199-.3.298-.3h5.279Z"/></g></svg>
